X: 21583
T: THE HIGHLANDMAN IN PARIS -- Strathspey
R: strathspey
B: K\"ohler's Violin Repository, v.2, 1885 p.158 #3
F: http://www.archive.org/details/klersviolinrepos02rugg
Z: 2012 John Chambers <jc:trillian.mit.edu>
M: C|
L: 1/16
K: Em
|:\
vB,(E3"_>"E3G) F3ED2F2 | B,("_>"E3E3)G u(GB3) u(Be3) |\
(.d3.A)(B3G) F2D2D2F2 | B,3(B "_>"BA).G.F G(E3"^>"E4 :|
|:\
vB(e3"_>"e3g) f3ed2f2 | B2(b2"_>"b3a) g3ag2e2 |\
{ed^c}d2e2d2B2 .A.G.F.E D2F2 | B,3(B BA).G>F "_Segue Reel."G(E3 E4) "^D.C.":|

%%sep 2 1 500

